X:1
T:Title
%%score { 1 | 2 }
L:1/8
M:4/4
K:G
V:1 treble nm="Grand Piano"
V:2 bass 
V:1
 z4 z2[Q:1/4=110] D2 | [B,DG]2 [B,DG]2 [B,DG]2 [B,DG]2 | [DFB]3 [CFA] [B,DG]2 [G,D]2 | %3
 [G,CE]2 [CEG]2 [B,DG]2 [A,DF]2 |[M:3/4] [B,DG]6 |[M:1/4] D2 |[M:4/4] [FA]2 [FA]2 [GB]2 [GB]2 | %7
 [FA]3 [EG] [DF]2 [DA]2 | [^CA]2 [CG]2 [CF]2 [CE]2 |[M:3/4] D6 |[M:1/4] D2 |[M:4/4] c3 B A2 A2 | %12
 d3 [DB] [B,G]2 [B,D]2 | [CE]2 [CE]2 [Ec]2 [Ec]2 |[M:3/4] [DB]6 |[M:1/4] [DG]2 | %16
[M:4/4] [FA]2 [FA]2 B2 c2 | d3 B G2 [GA]2 | [GB]3 [Ac] [GB]2 [CFA]2 |[M:3/4] [B,DG]6 |] %20
V:2
 z4 z2 D,2 | G,,2 B,,2 D,2 G,2 | D,3 D, G,,2 B,,2 | C,2 C,2 D,2 D,2 |[M:3/4] G,,6 |[M:1/4] D,2 | %6
[M:4/4] [D,D]2 [D,D]2 [D,D]2 [D,D]2 | [D,D]3 [D,A,] [D,A,]2 [D,F,]2 | %8
 [A,,E,]2 [A,,E,]2 [A,,A,]2 [A,,G,]2 |[M:3/4] [D,F,]6 |[M:1/4] [D,F,]2 | %11
[M:4/4] [D,A,D]3 [D,G,D] [D,F,D]2 [D,F,D]2 | [G,,B,D]3 [G,,G,] [G,,D,]2 [G,,G,]2 | %13
 [C,G,]2 [C,G,]2 [C,G,]2 [C,G,]2 |[M:3/4] [G,,G,]6 |[M:1/4] [G,B,]2 | %16
[M:4/4] [D,D]2 [D,D]2[K:treble] [G,DG]2 [A,DF]2 | [B,DG]3 [G,DG][K:bass] [E,^C]2 [E,C]2 | %18
 [D,D]3 [D,D] [D,D]2 D,2 |[M:3/4] G,,6 |] %20

